X:1
T:Just Before the Battle, Mother
M:4/4
L:1/4
K:G
 G3 A| B D G F| F E3-| E4| F3 G| A ^G B A| G4-| G4| G3 A| B D G F|\
 F E3-| E4| F3 G| A ^G B A| G4-| G4| B3 B| c B A G| C E3-| E4| A3 B|\
 A G F E| D4-| D4| G3 A| B D G F| F E3-| E4| F3 G| A ^G B A| G4-| G4|\
 B3 B| c B A G| C E3-| E4| A3 B| A G F E| D4-| D4| G3 A| B D G F| F E3-|\
 E4| F3 G| A ^G B A| G4-| G4|
